images/sprites/sprite-hero.svg

<svg xmlns="http://www.w3.org/2000/svg"  xmlns:xlink="http://www.w3.org/1999/xlink">
  <symbol id="battery" viewBox="0 0 39 39">
    <g clip-path="url(#clip0)">
      <path d="M26.031 3.73074H12.969C11.527 3.73074 10.3539 4.90383 10.3539 6.34588V35.8079C10.3539 37.2499 11.527 38.423 12.969 38.423H26.031C27.4731 38.423 28.6462 37.2499 28.6462 35.8079V6.34597C28.6462 4.90383 27.4731 3.73074 26.031 3.73074ZM27.3846 35.8079C27.3846 36.5542 26.7772 37.1616 26.031 37.1616H12.969C12.2228 37.1616 11.6154 36.5542 11.6154 35.8079V6.34597C11.6154 5.59977 12.2228 4.99234 12.969 4.99234H26.031C26.7773 4.99234 27.3847 5.59977 27.3847 6.34597V35.8079H27.3846Z" fill="black"/>
      <path d="M22.9693 0.576935H16.0308C15.6825 0.576935 15.4 0.859395 15.4 1.20773V4.36155C15.4 4.70989 15.6825 4.99235 16.0308 4.99235H22.9693C23.3176 4.99235 23.6001 4.70989 23.6001 4.36155V1.20773C23.6 0.859395 23.3176 0.576935 22.9693 0.576935ZM22.3385 3.73075H16.6615V1.83844H22.3385V3.73075Z" fill="black"/>
      <path d="M24.1319 17.8996C24.0161 17.7175 23.8155 17.6075 23.6 17.6075H19.8154V11.9306C19.8154 11.6349 19.6099 11.379 19.3213 11.315C19.0301 11.2512 18.738 11.396 18.613 11.6639L14.1976 21.1255C14.1065 21.3207 14.1215 21.5494 14.2373 21.731C14.3531 21.9132 14.5537 22.0231 14.7692 22.0231H18.5538V27.7C18.5538 27.9957 18.7593 28.2516 19.0479 28.3157C19.0938 28.3259 19.1396 28.3308 19.1849 28.3308C19.4257 28.3308 19.6509 28.1922 19.7562 27.9667L24.1716 18.5052C24.2627 18.3099 24.2477 18.0812 24.1319 17.8996ZM18.5538 20.7615H15.7597L18.5538 14.7738V20.7615ZM19.8154 24.857V18.8692H22.6095L19.8154 24.857Z" fill="black"/>
      </g>
  </symbol>
  <symbol id="Ear" viewBox="0 0 41 41">
  <g>
  <path d="M12.5923 0.788452C6.0838 0.788452 0.788452 6.52513 0.788452 13.6081C0.813499 15.2504 1.26379 16.8582 2.0954 18.2746C2.48837 18.9449 2.82485 19.6468 3.10135 20.373C3.28473 20.9068 3.10872 21.498 2.6633 21.8446C1.88835 22.4641 1.43928 23.404 1.44422 24.3962C1.44111 25.4864 1.9801 26.5069 2.88233 27.1189C3.20669 27.3393 3.40398 27.7033 3.41153 28.0954V33.577C3.41153 37.1929 6.05888 40.1347 9.31347 40.1347C12.5681 40.1347 15.2154 37.1929 15.2154 33.577C15.2054 30.8762 16.3799 28.3068 18.4287 26.5471C22.2694 23.3425 24.4615 18.5777 24.3962 13.576C24.3962 6.52513 19.1008 0.788452 12.5923 0.788452ZM17.5762 25.551C15.2357 27.5594 13.8934 30.4929 13.9039 33.577C13.9039 36.4696 11.8441 38.8231 9.31347 38.8231C6.78285 38.8231 4.72307 36.4696 4.72307 33.577V28.0954C4.71245 27.2832 4.31391 26.5251 3.65089 26.0559C3.09063 25.69 2.75372 25.0654 2.75576 24.3962C2.75126 23.793 3.02755 23.222 3.50334 22.8512C4.37644 22.1517 4.70981 20.9754 4.33355 19.9219C4.03153 19.1275 3.66367 18.3598 3.23382 17.6267C2.51115 16.3975 2.12043 15.0017 2.09999 13.576C2.09999 7.24845 6.80711 2.09999 12.5923 2.09999C18.3775 2.09999 23.0846 7.24845 23.0846 13.576C23.1447 18.1933 21.1213 22.592 17.5762 25.551Z" fill="black"/>
  <path d="M12.5923 4.06729C8.9377 4.06729 5.82148 6.6589 4.61158 10.2814C4.60306 10.303 4.59715 10.324 4.5906 10.3469C4.24485 11.3989 4.06778 12.4989 4.06598 13.6061C4.06598 14.3931 4.06598 16.7997 5.56966 18.3034C5.82697 18.5519 6.23598 18.5484 6.48893 18.2954C6.74189 18.0425 6.74544 17.6335 6.49692 17.3762C5.95817 16.7773 5.61221 16.03 5.50408 15.2318C5.60966 15.2252 5.71393 15.2167 5.82344 15.2167C8.83343 15.2154 11.2808 17.9696 11.2808 21.3534C11.2808 21.6675 11.2657 21.9626 11.2414 22.2538C10.9149 22.6024 10.5676 22.9309 10.2014 23.2374C8.29139 24.8016 7.2328 27.1762 7.34614 29.6423C7.34614 30.0045 7.63974 30.2981 8.00191 30.2981C8.36409 30.2981 8.65768 30.0045 8.65768 29.6423C8.54487 27.563 9.43359 25.5552 11.0486 24.2408C13.3623 22.465 14.6711 19.6774 14.5596 16.763C14.5596 12.6579 11.4709 9.31345 7.67403 9.31345C7.23785 9.3146 6.80296 9.36075 6.37626 9.45117C7.51611 7.0315 9.91876 5.45745 12.5923 5.37883C16.5696 5.37883 19.8058 9.06885 19.8058 13.6048C19.8573 17.1782 18.3076 20.5872 15.5813 22.8977C15.4908 22.9758 15.3905 23.0597 15.2816 23.1509C13.9766 24.2355 11.2624 26.4953 10.6289 32.1933C10.5906 32.5523 10.8498 32.8748 11.2086 32.9146C11.2325 32.9181 11.2566 32.9203 11.2808 32.9212C11.6148 32.9209 11.8952 32.6695 11.9319 32.3376C12.5071 27.1635 14.8567 25.2087 16.1197 24.1588C16.2358 24.0617 16.3427 23.9725 16.4384 23.8899C19.4567 21.3331 21.1731 17.5601 21.1173 13.6048C21.1173 8.34554 17.2929 4.06729 12.5923 4.06729ZM7.67403 10.625C10.7476 10.625 13.2481 13.3792 13.2481 16.763C13.2778 18.0038 13.0314 19.2358 12.5267 20.3697C12.0867 16.7237 9.25247 13.9038 5.82476 13.9038C5.67327 13.9038 5.52769 13.915 5.38145 13.9255C5.38145 13.7996 5.38145 13.6901 5.38145 13.6048C5.38169 12.7278 5.50712 11.8554 5.75393 11.0139C6.36201 10.7587 7.0146 10.6266 7.67403 10.625Z" fill="black"/>
  <path d="M33.577 15.8712C33.6273 13.8043 34.5038 11.8439 36.0105 10.4283C36.1936 10.2657 36.2708 10.0148 36.2109 9.77745C36.151 9.54012 35.9639 9.35591 35.7257 9.29971C35.4874 9.2435 35.2377 9.32466 35.078 9.51019C33.3267 11.1684 32.3135 13.4598 32.2654 15.8712C32.3135 18.2825 33.3267 20.5739 35.078 22.2321C35.2377 22.4177 35.4874 22.4988 35.7257 22.4426C35.9639 22.3864 36.151 22.2022 36.2109 21.9649C36.2708 21.7275 36.1936 21.4766 36.0105 21.3141C34.5038 19.8984 33.6273 17.938 33.577 15.8712Z" fill="black"/>
  <path d="M37.9477 12.1025C37.8178 11.9868 37.6472 11.9275 37.4736 11.9375C37.2999 11.9476 37.1374 12.0263 37.0217 12.1562C35.0519 14.2412 35.0519 17.5012 37.0217 19.5861C37.1775 19.7611 37.4149 19.8397 37.6443 19.7923C37.8738 19.7449 38.0605 19.5786 38.1342 19.3562C38.2078 19.1338 38.1572 18.8889 38.0014 18.7139C36.474 17.1265 36.474 14.6158 38.0014 13.0284C38.1171 12.8985 38.1764 12.7279 38.1664 12.5543C38.1563 12.3806 38.0776 12.2181 37.9477 12.1025Z" fill="black"/>
  <path d="M39.9661 14.1209C39.7238 13.8519 39.3093 13.8302 39.0402 14.0724C38.489 14.5066 38.1674 15.1695 38.1674 15.8712C38.1674 16.5728 38.489 17.2358 39.0402 17.67C39.2134 17.8322 39.4608 17.8883 39.687 17.8164C39.9133 17.7445 40.083 17.556 40.1308 17.3235C40.1786 17.091 40.0971 16.8508 39.9176 16.6955C39.6633 16.4935 39.5045 16.1949 39.4789 15.8712C39.5045 15.5475 39.6633 15.2489 39.9176 15.0469C40.1866 14.8046 40.2083 14.3901 39.9661 14.1209Z" fill="black"/>
  <path d="M30.2981 15.8712C30.2981 12.9858 31.5906 10.1974 34.036 7.81567C34.2037 7.65167 34.2713 7.41064 34.2131 7.18337C34.1549 6.95609 33.98 6.77711 33.7541 6.71383C33.5282 6.65056 33.2857 6.71261 33.1179 6.87661C30.4161 9.51018 28.9866 12.6205 28.9866 15.8712C28.9866 19.1218 30.4161 22.2321 33.1179 24.8657C33.3772 25.1192 33.793 25.1145 34.0465 24.8552C34.3 24.5959 34.2953 24.1802 34.036 23.9267C31.5906 21.5449 30.2981 18.7566 30.2981 15.8712Z" fill="black"/>
  <path d="M27.0193 15.8712C27.0193 12.2684 28.542 8.79802 31.4241 5.83787C31.5881 5.66989 31.65 5.42718 31.5866 5.20116C31.5231 4.97514 31.3439 4.80016 31.1164 4.74212C30.8889 4.68409 30.6477 4.75181 30.4837 4.9198C27.3596 8.13307 25.7077 11.9201 25.7077 15.8712C25.7077 19.8222 27.3596 23.6092 30.4837 26.8225C30.7373 27.0822 31.1533 27.0872 31.413 26.8337C31.6727 26.5801 31.6776 26.1641 31.4241 25.9044C28.542 22.9443 27.0193 19.474 27.0193 15.8712Z" fill="black"/>
  </g>
  </symbol>
  <symbol id="Charge" viewBox="0 0 23 39">
  <path d="M21.5923 8.77691H19.7V2.46924C19.7 1.39691 18.88 0.576935 17.8077 0.576935C16.7353 0.576935 15.9154 1.39691 15.9154 2.46924V8.77691H7.08464V2.46924C7.08464 1.39691 6.26466 0.576935 5.19233 0.576935C4.12 0.576935 3.30002 1.39691 3.30002 2.46924V8.77691H1.40772C1.02925 8.77691 0.77697 9.02919 0.77697 9.40765V14.2015C0.77697 17.3553 1.97541 20.383 4.12007 22.7169C6.01238 24.8615 7.08471 27.6369 7.08471 30.4753V32.1153C7.08471 33.8815 8.47238 35.2692 10.2386 35.2692H10.8693V37.7923C10.8693 38.1707 11.1216 38.423 11.5001 38.423C11.8785 38.423 12.1308 38.1707 12.1308 37.7923V35.2692H12.7616C14.5277 35.2692 15.9154 33.8815 15.9154 32.1153V30.5384C15.9154 27.6369 16.9246 24.9246 18.8801 22.78C21.0247 20.4462 22.2232 17.3553 22.2232 14.2016V9.40773C22.2231 9.02927 21.9707 8.77691 21.5923 8.77691ZM17.1769 2.46924C17.1769 2.09078 17.4292 1.8385 17.8077 1.8385C18.1861 1.8385 18.4384 2.09078 18.4384 2.46924V8.77691H17.1769V2.46924ZM4.56151 2.46924C4.56151 2.15383 4.8138 1.8385 5.19226 1.8385C5.57072 1.8385 5.823 2.09078 5.823 2.46924V8.77691H4.56144V2.46924H4.56151ZM20.9615 14.1385C20.9615 17.04 19.9523 19.7524 17.9969 21.897C15.8523 24.2308 14.6539 27.3215 14.6539 30.4754V32.1154C14.6539 33.1878 13.8339 34.0077 12.7616 34.0077H10.2385C9.16618 34.0077 8.3462 33.1878 8.3462 32.1154V30.5385C8.3462 27.3847 7.14777 24.2939 5.0031 21.9601C3.11079 19.8154 2.03846 17.04 2.03846 14.2016V10.0385H3.93077H6.45382H16.5461H19.0692H20.9615V14.1385Z" fill="black"/>
  <path d="M14.0231 16.977H10.4907L13.8338 13.6339C14.0861 13.3816 14.0861 13.0031 13.8338 12.7508C13.5815 12.4984 13.2031 12.4985 12.9507 12.7508L8.53536 17.1661C8.34613 17.3554 8.28307 17.6076 8.40918 17.86C8.47223 18.1123 8.72459 18.2385 8.97687 18.2385H12.5092L9.1661 21.5816C8.91382 21.8338 8.91382 22.2123 9.1661 22.4647C9.29228 22.5908 9.41839 22.6539 9.60762 22.6539C9.79685 22.6539 9.92302 22.5908 10.0491 22.4647L14.4645 18.0493C14.6537 17.8601 14.7168 17.6078 14.5907 17.3554C14.5277 17.1031 14.2754 16.977 14.0231 16.977Z" fill="black"/>
  </symbol>
</svg>

<svg width="0" height="0" class="hidden" xmlns="http://www.w3.org/2000/svg" xmlns:xlink="http://www.w3.org/1999/xlink">
<symbol fill="none" xmlns="http://www.w3.org/2000/svg" viewBox="0 0 39 39" id="battery">
    <g clip-path="url(#clip0)" fill="#000">
      <path d="M26.031 3.73H12.969a2.618 2.618 0 00-2.615 2.616v29.462a2.618 2.618 0 002.615 2.615h13.062a2.618 2.618 0 002.615-2.615V6.346a2.618 2.618 0 00-2.615-2.615zm1.354 32.078c0 .746-.608 1.354-1.354 1.354H12.969a1.355 1.355 0 01-1.354-1.354V6.346c0-.746.608-1.354 1.354-1.354h13.062c.746 0 1.354.608 1.354 1.354v29.462z"></path>
      <path d="M22.97.577h-6.94a.63.63 0 00-.63.63v3.155c0 .348.282.63.63.63h6.94a.63.63 0 00.63-.63V1.208a.63.63 0 00-.63-.631zm-.631 3.154h-5.677V1.838h5.677v1.893zM24.132 17.9a.63.63 0 00-.532-.292h-3.785V11.93a.63.63 0 00-1.202-.267l-4.415 9.461a.63.63 0 00.571.898h3.785V27.7a.63.63 0 001.202.267l4.416-9.462a.631.631 0 00-.04-.605zm-5.578 2.862H15.76l2.794-5.988v5.988zm1.261 4.095v-5.988h2.794l-2.794 5.988z"></path>
    </g>
    <defs>
      <clipPath id="clip0">
        <path fill="#fff" transform="translate(.577 .577)" d="M0 0h37.846v37.846H0z"></path>
      </clipPath>
    </defs>
  </symbol>

  <symbol fill="none" xmlns="http://www.w3.org/2000/svg" viewBox="0 0 39 39" id="charge">
    <g clip-path="url(#clip0)" fill="#000">
      <path d="M29.592 8.777H27.7V2.469c0-1.072-.82-1.892-1.892-1.892-1.073 0-1.893.82-1.893 1.892v6.308h-8.83V2.469c0-1.072-.82-1.892-1.893-1.892-1.072 0-1.892.82-1.892 1.892v6.308H9.408c-.379 0-.631.252-.631.63v4.794a12.58 12.58 0 003.343 8.516c1.892 2.145 2.965 4.92 2.965 7.758v1.64a3.123 3.123 0 003.154 3.154h.63v2.523c0 .379.253.631.631.631s.63-.252.63-.63v-2.524h.632a3.123 3.123 0 003.153-3.154v-1.577c0-2.901 1.01-5.613 2.965-7.758a12.737 12.737 0 003.343-8.578V9.408c0-.379-.252-.631-.63-.631zm-4.415-6.308c0-.378.252-.63.63-.63.38 0 .631.252.631.63v6.308h-1.261V2.469zm-12.615 0c0-.315.252-.63.63-.63.379 0 .631.252.631.63v6.308h-1.262V2.469zm16.4 11.67c0 2.901-1.01 5.613-2.965 7.758a12.737 12.737 0 00-3.343 8.578v1.64c0 1.073-.82 1.893-1.892 1.893h-2.524a1.858 1.858 0 01-1.892-1.893v-1.577c0-3.153-1.198-6.244-3.343-8.578-1.892-2.145-2.964-4.92-2.964-7.758v-4.163h18.923v4.1z"></path>
      <path d="M22.023 16.977h-3.532l3.343-3.343a.61.61 0 000-.883.61.61 0 00-.883 0l-4.416 4.415c-.189.19-.252.442-.126.694.063.252.316.378.568.378h3.532l-3.343 3.344a.61.61 0 000 .883.573.573 0 00.442.189.57.57 0 00.441-.19l4.416-4.415c.189-.189.252-.441.126-.694-.063-.252-.316-.378-.568-.378z"></path>
    </g>
    <defs>
      <clipPath id="clip0">
        <path fill="#fff" transform="translate(.577 .577)" d="M0 0h37.846v37.846H0z"></path>
      </clipPath>
    </defs>
  </symbol>

  <symbol fill="none" xmlns="http://www.w3.org/2000/svg" viewBox="0 0 41 41" id="Ear">
    <g clip-path="url(#clip0)" fill="#000">
      <path d="M12.592.788C6.084.788.788 6.525.788 13.608a9.503 9.503 0 001.307 4.667c.393.67.73 1.372 1.006 2.098a1.32 1.32 0 01-.438 1.472 3.246 3.246 0 00-1.219 2.551 3.279 3.279 0 001.438 2.723c.325.22.522.584.53.976v5.482c0 3.616 2.647 6.558 5.901 6.558 3.255 0 5.902-2.942 5.902-6.558a9.222 9.222 0 013.214-7.03 16.61 16.61 0 005.967-12.971c0-7.05-5.295-12.788-11.804-12.788zm4.984 24.763a10.529 10.529 0 00-3.672 8.026c0 2.893-2.06 5.246-4.59 5.246-2.531 0-4.59-2.353-4.59-5.246v-5.482a2.54 2.54 0 00-1.073-2.04 1.975 1.975 0 01-.895-1.659 1.94 1.94 0 01.747-1.545 2.623 2.623 0 00.83-2.93 15.256 15.256 0 00-1.1-2.294A8.225 8.225 0 012.1 13.576C2.1 7.248 6.807 2.1 12.592 2.1c5.786 0 10.493 5.148 10.493 11.476a15.338 15.338 0 01-5.509 11.975z"></path>
      <path d="M12.592 4.067c-3.654 0-6.77 2.592-7.98 6.214a10.493 10.493 0 00-.546 3.325c0 .787 0 3.194 1.504 4.697a.656.656 0 00.927-.927 4.012 4.012 0 01-.993-2.144c.106-.007.21-.015.32-.015 3.01-.002 5.457 2.753 5.457 6.136 0 .314-.015.61-.04.9-.326.35-.673.678-1.04.984a7.815 7.815 0 00-2.855 6.405.656.656 0 101.312 0 6.51 6.51 0 012.39-5.401 8.993 8.993 0 003.512-7.478c0-4.105-3.09-7.45-6.886-7.45a6.34 6.34 0 00-1.298.138 7.102 7.102 0 016.216-4.072c3.978 0 7.214 3.69 7.214 8.226a11.955 11.955 0 01-4.225 9.293c-.09.078-.19.162-.3.253-1.304 1.084-4.019 3.344-4.652 9.042a.656.656 0 00.58.722.67.67 0 00.072.006.656.656 0 00.65-.583c.576-5.175 2.926-7.13 4.189-8.18.116-.096.223-.186.318-.268a13.235 13.235 0 004.68-10.285c0-5.26-3.825-9.538-8.526-9.538zm-4.918 6.558c3.074 0 5.574 2.754 5.574 6.138a8.377 8.377 0 01-.721 3.607c-.44-3.646-3.275-6.466-6.702-6.466-.152 0-.297.011-.444.021v-.32c0-.877.126-1.75.373-2.591a4.993 4.993 0 011.92-.389zm25.903 5.246a7.726 7.726 0 012.434-5.443.656.656 0 10-.933-.918 9.007 9.007 0 00-2.813 6.361 9.007 9.007 0 002.813 6.361.656.656 0 10.932-.918 7.727 7.727 0 01-2.433-5.443z"></path>
      <path d="M37.948 12.102a.656.656 0 00-.926.054 5.41 5.41 0 000 7.43.656.656 0 00.98-.872 4.1 4.1 0 010-5.686.656.656 0 00-.054-.926z"></path>
      <path d="M39.966 14.12a.656.656 0 00-.926-.048 2.29 2.29 0 000 3.598.656.656 0 10.878-.975 1.17 1.17 0 01-.44-.824 1.17 1.17 0 01.44-.824.656.656 0 00.048-.926zm-9.668 1.751c0-2.885 1.293-5.674 3.738-8.055a.657.657 0 10-.918-.94c-2.702 2.634-4.131 5.744-4.131 8.995 0 3.25 1.43 6.361 4.13 8.995a.657.657 0 00.919-.94c-2.445-2.381-3.738-5.17-3.738-8.055z"></path>
      <path d="M27.02 15.871c0-3.603 1.522-7.073 4.404-10.033a.657.657 0 00-.94-.918c-3.124 3.213-4.776 7-4.776 10.951 0 3.951 1.652 7.738 4.776 10.952a.657.657 0 00.94-.919c-2.882-2.96-4.405-6.43-4.405-10.033z"></path>
    </g>
    <defs>
      <clipPath id="clip0">
        <path fill="#fff" transform="translate(.788 .788)" d="M0 0h39.423v39.346H0z"></path>
      </clipPath>
    </defs>
  </symbol>
</svg>
